static/img/menus/ico-setting2.svg

<svg xmlns="http://www.w3.org/2000/svg" width="16" height="16" fill="none" viewBox="0 0 16 16"><g clip-path="url(#a)"><path fill="currentcolor" d="M14.27 6.06h-1.94c-.09-.31-.21-.6-.36-.88l1.37-1.37c.31-.31.31-.82 0-1.13l-.95-.95a.803.803 0 0 0-1.13 0L9.88 3.11c-.28-.15-.57-.27-.88-.36V.8c0-.44-.36-.8-.8-.8H6.86c-.44 0-.8.36-.8.8v1.95c-.31.09-.6.21-.88.36L3.81 1.74a.803.803 0 0 0-1.13 0l-.95.95c-.31.31-.31.82 0 1.13L3.1 5.19c-.15.28-.27.57-.36.88H.8c-.44 0-.8.36-.8.8v1.34c0 .44.36.8.8.8h1.94c.09.31.21.6.36.88l-1.37 1.37c-.31.31-.31.82 0 1.13l.95.95c.31.31.82.31 1.13 0l1.37-1.37c.28.15.57.27.88.36v1.95c0 .44.36.8.8.8H8.2c.44 0 .8-.36.8-.8v-1.95c.31-.09.6-.21.88-.36l1.38 1.38c.31.31.82.31 1.13 0l.95-.95c.31-.31.31-.82 0-1.13L11.97 9.9c.15-.28.27-.57.36-.88h1.94c.44 0 .8-.36.8-.8V6.88c0-.44-.36-.8-.8-.8zM7.54 9.91a2.38 2.38 0 0 1-2.38-2.38c0-1.32 1.06-2.38 2.38-2.38a2.38 2.38 0 0 1 2.38 2.38c0 1.32-1.06 2.38-2.38 2.38"/></g><defs><clipPath id="a"><path fill="#fff" d="M0 0h15.07v15.07H0z"/></clipPath></defs></svg>

<svg width="16" height="16" viewBox="0 0 16 16" fill="none" xmlns="http://www.w3.org/2000/svg">
<g clip-path="url(#clip0_1495_26)">
<path d="M14.27 6.06H12.33C12.24 5.75 12.12 5.46 11.97 5.18L13.34 3.81C13.65 3.5 13.65 2.99 13.34 2.68L12.39 1.73C12.08 1.42 11.57 1.42 11.26 1.73L9.88 3.11C9.6 2.96 9.31 2.84 9 2.75V0.8C9 0.36 8.64 0 8.2 0H6.86C6.42 0 6.06 0.36 6.06 0.8V2.75C5.75 2.84 5.46 2.96 5.18 3.11L3.81 1.74C3.5 1.43 2.99 1.43 2.68 1.74L1.73 2.69C1.42 3 1.42 3.51 1.73 3.82L3.1 5.19C2.95 5.47 2.83 5.76 2.74 6.07H0.8C0.36 6.07 0 6.43 0 6.87V8.21C0 8.65 0.36 9.01 0.8 9.01H2.74C2.83 9.32 2.95 9.61 3.1 9.89L1.73 11.26C1.42 11.57 1.42 12.08 1.73 12.39L2.68 13.34C2.99 13.65 3.5 13.65 3.81 13.34L5.18 11.97C5.46 12.12 5.75 12.24 6.06 12.33V14.28C6.06 14.72 6.42 15.08 6.86 15.08H8.2C8.64 15.08 9 14.72 9 14.28V12.33C9.31 12.24 9.6 12.12 9.88 11.97L11.26 13.35C11.57 13.66 12.08 13.66 12.39 13.35L13.34 12.4C13.65 12.09 13.65 11.58 13.34 11.27L11.97 9.9C12.12 9.62 12.24 9.33 12.33 9.02H14.27C14.71 9.02 15.07 8.66 15.07 8.22V6.88C15.07 6.44 14.71 6.08 14.27 6.08V6.06ZM7.54 9.91C6.23 9.91 5.16 8.85 5.16 7.53C5.16 6.21 6.22 5.15 7.54 5.15C8.85 5.15 9.92 6.21 9.92 7.53C9.92 8.85 8.86 9.91 7.54 9.91Z" fill="currentcolor"/>
</g>
<defs>
<clipPath id="clip0_1495_26">
<rect width="15.07" height="15.07" fill="white"/>
</clipPath>
</defs>
</svg>
